Newaita-dark/apps/16/sublime-merge.svg

<svg height="16" viewBox="0 0 16 16" width="16" xmlns="http://www.w3.org/2000/svg" xmlns:xlink="http://www.w3.org/1999/xlink"><linearGradient id="a" gradientUnits="userSpaceOnUse" x1="7.93826" x2="7.93826" y1="14.0169685" y2="14.67849050002"><stop offset="0" stop-opacity=".27451"/><stop offset="1" stop-opacity="0"/></linearGradient><linearGradient id="b"><stop offset="0" stop-opacity=".313726"/><stop offset=".222222" stop-opacity=".27451"/><stop offset="1" stop-opacity="0"/></linearGradient><radialGradient id="c" cx="450.908936" cy="189.579361" gradientTransform="matrix(.00000009 -.0390662 -.0703192 -.00000005 26.065324 31.797666)" gradientUnits="userSpaceOnUse" r="21.166656" xlink:href="#b"/><radialGradient id="d" cx="450.908936" cy="189.579361" gradientTransform="matrix(-.00000009 .0390662 .0703192 .00000005 -10.188807 -3.763739)" gradientUnits="userSpaceOnUse" r="21.166656" xlink:href="#b"/><radialGradient id="e" cx="450.908936" cy="189.579361" gradientTransform="matrix(-.00000009 -.0390662 .0703192 -.00000005 -10.188807 31.797666)" gradientUnits="userSpaceOnUse" r="21.166656" xlink:href="#b"/><radialGradient id="f" cx="450.908936" cy="189.579361" gradientTransform="matrix(.00000009 .0390662 -.0703192 .00000005 26.065323 -3.76374)" gradientUnits="userSpaceOnUse" r="21.166656" xlink:href="#b"/><linearGradient id="g" gradientUnits="userSpaceOnUse" x1="5.29217449998" x2="5.29217449998" y1="14.0169675" y2="1.44805300003"><stop offset="0" stop-color="#424242"/><stop offset="1" stop-color="#616161"/></linearGradient><linearGradient id="h" gradientUnits="userSpaceOnUse" x1="7.93826153121" x2="7.938262" y1="14.0169675" y2="1.44805300003"><stop offset="0" stop-color="#26c6da"/><stop offset="1" stop-color="#4dd0e1"/></linearGradient><linearGradient id="i" gradientTransform="matrix(.031253 0 0 -.031253 0 8.746155)" gradientUnits="userSpaceOnUse" x1="253.999985" x2="254" y1="233.5" y2="-168.666656"><stop offset="0" stop-color="#b2ebf2"/><stop offset="1" stop-color="#80deea"/></linearGradient><path d="m2.976562 13.96875h9.921876v.734375h-9.921876zm0 0" fill="url(#a)"/><path d="m12.898438 14.015625h1.324218v-.660156h-1.324218zm0 0" fill="url(#c)"/><path d="m2.976562 14.015625h-1.324218v.664063h1.324218zm0 0" fill="url(#d)"/><path d="m2.976562 14.015625h-1.324218v-.660156h1.324218zm0 0" fill="url(#e)"/><path d="m12.898438 14.015625h1.324218v.664063h-1.324218zm0 0" fill="url(#f)"/><path d="m2.316406 1.449219h11.246094c.363281 0 .660156.296875.660156.660156v11.246094c0 .367187-.296875.660156-.660156.660156h-11.246094c-.367187 0-.664062-.292969-.664062-.660156v-11.246094c0-.363281.296875-.660156.664062-.660156zm0 0" fill="url(#g)"/><path d="m4.316406 6.183594c-.042968.132812.003906.289062.125.371094l1.976563 1.382812 1.332031-.929688c.054688-.039062.121094-.0625.1875-.0625h.269531l-.292969-.203124c-.058593.003906-.117187.023437-.164062.058593l-1.332031.929688-1.976563-1.382813c-.0625-.039062-.101562-.101562-.125-.164062zm0 0" fill-opacity=".235294"/><path d="m2.316406 1.449219c-.367187 0-.664062.292969-.664062.660156v.082031c0-.367187.296875-.660156.664062-.660156h11.246094c.363281 0 .660156.292969.660156.660156v-.082031c0-.367187-.296875-.660156-.660156-.660156zm0 0" fill="#e6e6e6" fill-opacity=".392157"/><path d="m2.316406 14.015625c-.367187 0-.664062-.292969-.664062-.660156v-.082031c0 .367187.296875.660156.664062.660156h11.246094c.363281 0 .660156-.292969.660156-.660156v.082031c0 .367187-.296875.660156-.660156.660156zm0 0" fill-opacity=".196078"/><path d="m74.117922-168.629428h359.840637c11.62389 0 21.122983 9.499093 21.122983 21.122983v359.840637c0 11.748878-9.499093 21.122982-21.122983 21.122982h-359.840637c-11.748878 0-21.247971-9.374104-21.247971-21.122982v-359.840637c0-11.62389 9.499093-21.122983 21.247971-21.122983zm0 0" fill="none" stroke="#212121" stroke-linecap="round" stroke-width="3" transform="matrix(.031253 0 0 .031253 0 6.719392)"/><path d="m7.9375 6.742188c-.066406 0-.132812.019531-.1875.058593l-3.308594 2.316407c-.148437.101562-.183594.304687-.085937.453124l.660156.992188c.105469.152344.316406.191406.46875.085938l2.722656-1.925782h2.378907c.085937 0 .171874-.03125.230468-.09375l.664063-.664062c.128906-.128906.128906-.335938 0-.464844l-.664063-.664062c-.058594-.058594-.144531-.09375-.230468-.09375zm0 0" fill="url(#h)"/><path d="m5.296875 4.757812c-.109375-.003906-.214844.050782-.28125.144532l-.660156.992187c-.097657.152344-.0625.351563.085937.457031l1.976563 1.382813 1.332031-.933594c.054688-.039062.121094-.058593.1875-.058593h.269531l-2.722656-1.925782c-.058594-.039062-.125-.058594-.1875-.058594zm0 0" fill="url(#i)"/><path d="m7.9375 6.742188c-.066406 0-.132812.019531-.1875.058593l-3.308594 2.316407c-.117187.078124-.164062.222656-.128906.351562.015625-.074219.0625-.140625.128906-.1875l3.308594-2.316406c.054688-.039063.121094-.058594.1875-.058594h2.648438c.085937 0 .171874.035156.230468.097656l.664063.660156c.042969.042969.070312.09375.085937.152344.027344-.109375 0-.230468-.085937-.316406l-.664063-.664062c-.058594-.058594-.144531-.09375-.230468-.09375zm0 0" fill="#fff" fill-opacity=".392157"/><path d="m11.550781 7.855469c-.015625.042969-.039062.078125-.070312.109375l-.664063.664062c-.058594.0625-.144531.097656-.230468.097656h-2.378907l-2.722656 1.921876c-.152344.109374-.363281.070312-.46875-.085938l-.660156-.992188c-.011719-.019531-.023438-.039062-.03125-.058593-.039063.097656-.03125.210937.03125.304687l.660156.992188c.105469.15625.316406.195312.46875.089844l2.722656-1.925782h2.378907c.085937 0 .171874-.035156.230468-.097656l.664063-.660156c.09375-.097656.121093-.238282.070312-.359375zm0 0" fill-opacity=".235294"/><path d="m5.296875 4.757812c-.109375-.003906-.214844.050782-.28125.144532l-.660156.992187c-.054688.082031-.066407.179688-.042969.265625.007812-.035156.023438-.066406.042969-.101562l.660156-.992188c.066406-.09375.171875-.144531.28125-.144531.0625 0 .128906.019531.1875.058594l2.492187 1.761719h.230469l-2.722656-1.925782c-.058594-.039062-.125-.058594-.1875-.058594zm0 0" fill="#fff" fill-opacity=".392157"/><g fill="none" stroke="#212121" stroke-linecap="round" stroke-linejoin="round"><path d="m253.975747.729399c-2.124798 0-4.249595.62494-5.999428 1.874821l-105.86489 74.117922c-4.749546 3.24969-5.874439 9.749069-2.749737 14.498615l21.122982 31.746969c3.374678 4.874534 10.124034 6.124415 14.998568 2.749737l87.116681-61.619116h76.117731c2.749737 0 5.499475-.999904 7.374296-2.999713l21.247971-21.247971c4.124606-4.124606 4.124606-10.748974 0-14.87358l-21.247971-21.247971c-1.874821-1.874821-4.624559-2.999713-7.374296-2.999713zm0 0" stroke-width="3" transform="matrix(.031253 0 0 .031253 0 6.719392)"/><path d="m640.568784 575.378155c-13.227084-.472396-25.981773 6.141146-34.012502 17.478647l-79.8349 119.988548c-11.809897 18.423438-7.558334 42.515627 10.392709 55.270315l239.032304 167.228134 161.086988-112.90261c6.613542-4.723959 14.644271-7.085938 22.675001-7.085938h32.595314l-329.259913-232.891158c-7.085938-4.723958-15.116668-7.085938-22.675001-7.085938zm0 0" stroke-width="11.338583" transform="scale(.00826902)"/></g></svg>

<?xml version="1.0" encoding="UTF-8"?>
<svg xmlns="http://www.w3.org/2000/svg" xmlns:xlink="http://www.w3.org/1999/xlink" width="16px" height="16px" viewBox="0 0 16 16" version="1.1">
<defs>
<linearGradient id="linear0" gradientUnits="userSpaceOnUse" x1="254" y1="233.5" x2="254" y2="254.666672" gradientTransform="matrix(0.031253,0,0,0.031253,-0.00000190753,6.719393)">
<stop offset="0" style="stop-color:rgb(0%,0%,0%);stop-opacity:0.27451;"/>
<stop offset="1" style="stop-color:rgb(0%,0%,0%);stop-opacity:0;"/>
</linearGradient>
<radialGradient id="radial0" gradientUnits="userSpaceOnUse" cx="450.908936" cy="189.579361" fx="450.908936" fy="189.579361" r="21.166656" gradientTransform="matrix(0.0000000870852,-0.0390662,-0.0703192,-0.0000000507693,26.065324,31.797666)">
<stop offset="0" style="stop-color:rgb(0%,0%,0%);stop-opacity:0.313726;"/>
<stop offset="0.222222" style="stop-color:rgb(0%,0%,0%);stop-opacity:0.27451;"/>
<stop offset="1" style="stop-color:rgb(0%,0%,0%);stop-opacity:0;"/>
</radialGradient>
<radialGradient id="radial1" gradientUnits="userSpaceOnUse" cx="450.908936" cy="189.579361" fx="450.908936" fy="189.579361" r="21.166656" gradientTransform="matrix(-0.0000000870852,0.0390662,0.0703192,0.0000000507693,-10.188807,-3.763739)">
<stop offset="0" style="stop-color:rgb(0%,0%,0%);stop-opacity:0.313726;"/>
<stop offset="0.222222" style="stop-color:rgb(0%,0%,0%);stop-opacity:0.27451;"/>
<stop offset="1" style="stop-color:rgb(0%,0%,0%);stop-opacity:0;"/>
</radialGradient>
<radialGradient id="radial2" gradientUnits="userSpaceOnUse" cx="450.908936" cy="189.579361" fx="450.908936" fy="189.579361" r="21.166656" gradientTransform="matrix(-0.0000000870852,-0.0390662,0.0703192,-0.0000000507693,-10.188807,31.797666)">
<stop offset="0" style="stop-color:rgb(0%,0%,0%);stop-opacity:0.313726;"/>
<stop offset="0.222222" style="stop-color:rgb(0%,0%,0%);stop-opacity:0.27451;"/>
<stop offset="1" style="stop-color:rgb(0%,0%,0%);stop-opacity:0;"/>
</radialGradient>
<radialGradient id="radial3" gradientUnits="userSpaceOnUse" cx="450.908936" cy="189.579361" fx="450.908936" fy="189.579361" r="21.166656" gradientTransform="matrix(0.0000000870852,0.0390662,-0.0703192,0.0000000507693,26.065323,-3.76374)">
<stop offset="0" style="stop-color:rgb(0%,0%,0%);stop-opacity:0.313726;"/>
<stop offset="0.222222" style="stop-color:rgb(0%,0%,0%);stop-opacity:0.27451;"/>
<stop offset="1" style="stop-color:rgb(0%,0%,0%);stop-opacity:0;"/>
</radialGradient>
<linearGradient id="linear1" gradientUnits="userSpaceOnUse" x1="169.333328" y1="233.5" x2="169.333328" y2="-168.666656" gradientTransform="matrix(0.031253,0,0,0.031253,0,6.719392)">
<stop offset="0" style="stop-color:rgb(25.882354%,25.882354%,25.882354%);stop-opacity:1;"/>
<stop offset="1" style="stop-color:rgb(38.039216%,38.039216%,38.039216%);stop-opacity:1;"/>
</linearGradient>
<linearGradient id="linear2" gradientUnits="userSpaceOnUse" x1="253.999985" y1="233.5" x2="254" y2="-168.666656" gradientTransform="matrix(0.031253,0,0,0.031253,0,6.719392)">
<stop offset="0" style="stop-color:rgb(14.901961%,77.64706%,85.490197%);stop-opacity:1;"/>
<stop offset="1" style="stop-color:rgb(30.19608%,81.568629%,88.235295%);stop-opacity:1;"/>
</linearGradient>
<linearGradient id="linear3" gradientUnits="userSpaceOnUse" x1="253.999985" y1="233.5" x2="254" y2="-168.666656" gradientTransform="matrix(0.031253,0,0,-0.031253,0,8.746155)">
<stop offset="0" style="stop-color:rgb(69.803923%,92.156863%,94.901961%);stop-opacity:1;"/>
<stop offset="1" style="stop-color:rgb(50.196081%,87.058824%,91.764706%);stop-opacity:1;"/>
</linearGradient>
</defs>
<g id="surface1">
<path style=" stroke:none;fill-rule:nonzero;fill:url(#linear0);" d="M 2.976562 13.96875 L 12.898438 13.96875 L 12.898438 14.703125 L 2.976562 14.703125 Z M 2.976562 13.96875 "/>
<path style=" stroke:none;fill-rule:nonzero;fill:url(#radial0);" d="M 12.898438 14.015625 L 14.222656 14.015625 L 14.222656 13.355469 L 12.898438 13.355469 Z M 12.898438 14.015625 "/>
<path style=" stroke:none;fill-rule:nonzero;fill:url(#radial1);" d="M 2.976562 14.015625 L 1.652344 14.015625 L 1.652344 14.679688 L 2.976562 14.679688 Z M 2.976562 14.015625 "/>
<path style=" stroke:none;fill-rule:nonzero;fill:url(#radial2);" d="M 2.976562 14.015625 L 1.652344 14.015625 L 1.652344 13.355469 L 2.976562 13.355469 Z M 2.976562 14.015625 "/>
<path style=" stroke:none;fill-rule:nonzero;fill:url(#radial3);" d="M 12.898438 14.015625 L 14.222656 14.015625 L 14.222656 14.679688 L 12.898438 14.679688 Z M 12.898438 14.015625 "/>
<path style=" stroke:none;fill-rule:nonzero;fill:url(#linear1);" d="M 2.316406 1.449219 L 13.5625 1.449219 C 13.925781 1.449219 14.222656 1.746094 14.222656 2.109375 L 14.222656 13.355469 C 14.222656 13.722656 13.925781 14.015625 13.5625 14.015625 L 2.316406 14.015625 C 1.949219 14.015625 1.652344 13.722656 1.652344 13.355469 L 1.652344 2.109375 C 1.652344 1.746094 1.949219 1.449219 2.316406 1.449219 Z M 2.316406 1.449219 "/>
<path style=" stroke:none;fill-rule:nonzero;fill:rgb(0%,0%,0%);fill-opacity:0.235294;" d="M 4.316406 6.183594 C 4.273438 6.316406 4.320312 6.472656 4.441406 6.554688 L 6.417969 7.9375 L 7.75 7.007812 C 7.804688 6.96875 7.871094 6.945312 7.9375 6.945312 L 8.207031 6.945312 L 7.914062 6.742188 C 7.855469 6.746094 7.796875 6.765625 7.75 6.800781 L 6.417969 7.730469 L 4.441406 6.347656 C 4.378906 6.308594 4.339844 6.246094 4.316406 6.183594 Z M 4.316406 6.183594 "/>
<path style=" stroke:none;fill-rule:nonzero;fill:rgb(90.196079%,90.196079%,90.196079%);fill-opacity:0.392157;" d="M 2.316406 1.449219 C 1.949219 1.449219 1.652344 1.742188 1.652344 2.109375 L 1.652344 2.191406 C 1.652344 1.824219 1.949219 1.53125 2.316406 1.53125 L 13.5625 1.53125 C 13.925781 1.53125 14.222656 1.824219 14.222656 2.191406 L 14.222656 2.109375 C 14.222656 1.742188 13.925781 1.449219 13.5625 1.449219 Z M 2.316406 1.449219 "/>
<path style=" stroke:none;fill-rule:nonzero;fill:rgb(0%,0%,0%);fill-opacity:0.196078;" d="M 2.316406 14.015625 C 1.949219 14.015625 1.652344 13.722656 1.652344 13.355469 L 1.652344 13.273438 C 1.652344 13.640625 1.949219 13.933594 2.316406 13.933594 L 13.5625 13.933594 C 13.925781 13.933594 14.222656 13.640625 14.222656 13.273438 L 14.222656 13.355469 C 14.222656 13.722656 13.925781 14.015625 13.5625 14.015625 Z M 2.316406 14.015625 "/>
<path style="fill:none;stroke-width:3;stroke-linecap:round;stroke-linejoin:miter;stroke:rgb(12.941177%,12.941177%,12.941177%);stroke-opacity:1;stroke-miterlimit:4;" d="M 74.117922 -168.629428 L 433.958559 -168.629428 C 445.582449 -168.629428 455.081542 -159.130335 455.081542 -147.506445 L 455.081542 212.334192 C 455.081542 224.08307 445.582449 233.457174 433.958559 233.457174 L 74.117922 233.457174 C 62.369044 233.457174 52.869951 224.08307 52.869951 212.334192 L 52.869951 -147.506445 C 52.869951 -159.130335 62.369044 -168.629428 74.117922 -168.629428 Z M 74.117922 -168.629428 " transform="matrix(0.031253,0,0,0.031253,0,6.719392)"/>
<path style=" stroke:none;fill-rule:nonzero;fill:url(#linear2);" d="M 7.9375 6.742188 C 7.871094 6.742188 7.804688 6.761719 7.75 6.800781 L 4.441406 9.117188 C 4.292969 9.21875 4.257812 9.421875 4.355469 9.570312 L 5.015625 10.5625 C 5.121094 10.714844 5.332031 10.753906 5.484375 10.648438 L 8.207031 8.722656 L 10.585938 8.722656 C 10.671875 8.722656 10.757812 8.691406 10.816406 8.628906 L 11.480469 7.964844 C 11.609375 7.835938 11.609375 7.628906 11.480469 7.5 L 10.816406 6.835938 C 10.757812 6.777344 10.671875 6.742188 10.585938 6.742188 Z M 7.9375 6.742188 "/>
<path style=" stroke:none;fill-rule:nonzero;fill:url(#linear3);" d="M 5.296875 4.757812 C 5.1875 4.753906 5.082031 4.808594 5.015625 4.902344 L 4.355469 5.894531 C 4.257812 6.046875 4.292969 6.246094 4.441406 6.351562 L 6.417969 7.734375 L 7.75 6.800781 C 7.804688 6.761719 7.871094 6.742188 7.9375 6.742188 L 8.207031 6.742188 L 5.484375 4.816406 C 5.425781 4.777344 5.359375 4.757812 5.296875 4.757812 Z M 5.296875 4.757812 "/>
<path style=" stroke:none;fill-rule:nonzero;fill:rgb(100%,100%,100%);fill-opacity:0.392157;" d="M 7.9375 6.742188 C 7.871094 6.742188 7.804688 6.761719 7.75 6.800781 L 4.441406 9.117188 C 4.324219 9.195312 4.277344 9.339844 4.3125 9.46875 C 4.328125 9.394531 4.375 9.328125 4.441406 9.28125 L 7.75 6.964844 C 7.804688 6.925781 7.871094 6.90625 7.9375 6.90625 L 10.585938 6.90625 C 10.671875 6.90625 10.757812 6.941406 10.816406 7.003906 L 11.480469 7.664062 C 11.523438 7.707031 11.550781 7.757812 11.566406 7.816406 C 11.59375 7.707031 11.566406 7.585938 11.480469 7.5 L 10.816406 6.835938 C 10.757812 6.777344 10.671875 6.742188 10.585938 6.742188 Z M 7.9375 6.742188 "/>
<path style=" stroke:none;fill-rule:nonzero;fill:rgb(0%,0%,0%);fill-opacity:0.235294;" d="M 11.550781 7.855469 C 11.535156 7.898438 11.511719 7.933594 11.480469 7.964844 L 10.816406 8.628906 C 10.757812 8.691406 10.671875 8.726562 10.585938 8.726562 L 8.207031 8.726562 L 5.484375 10.648438 C 5.332031 10.757812 5.121094 10.71875 5.015625 10.5625 L 4.355469 9.570312 C 4.34375 9.550781 4.332031 9.53125 4.324219 9.511719 C 4.285156 9.609375 4.292969 9.722656 4.355469 9.816406 L 5.015625 10.808594 C 5.121094 10.964844 5.332031 11.003906 5.484375 10.898438 L 8.207031 8.972656 L 10.585938 8.972656 C 10.671875 8.972656 10.757812 8.9375 10.816406 8.875 L 11.480469 8.214844 C 11.574219 8.117188 11.601562 7.976562 11.550781 7.855469 Z M 11.550781 7.855469 "/>
<path style=" stroke:none;fill-rule:nonzero;fill:rgb(100%,100%,100%);fill-opacity:0.392157;" d="M 5.296875 4.757812 C 5.1875 4.753906 5.082031 4.808594 5.015625 4.902344 L 4.355469 5.894531 C 4.300781 5.976562 4.289062 6.074219 4.3125 6.160156 C 4.320312 6.125 4.335938 6.09375 4.355469 6.058594 L 5.015625 5.066406 C 5.082031 4.972656 5.1875 4.921875 5.296875 4.921875 C 5.359375 4.921875 5.425781 4.941406 5.484375 4.980469 L 7.976562 6.742188 L 8.207031 6.742188 L 5.484375 4.816406 C 5.425781 4.777344 5.359375 4.757812 5.296875 4.757812 Z M 5.296875 4.757812 "/>
<path style="fill:none;stroke-width:3;stroke-linecap:round;stroke-linejoin:round;stroke:rgb(12.941177%,12.941177%,12.941177%);stroke-opacity:1;stroke-miterlimit:4;" d="M 253.975747 0.729399 C 251.850949 0.729399 249.726152 1.354339 247.976319 2.60422 L 142.111429 76.722142 C 137.361883 79.971832 136.23699 86.471211 139.361692 91.220757 L 160.484674 122.967726 C 163.859352 127.84226 170.608708 129.092141 175.483242 125.717463 L 262.599923 64.098347 L 338.717654 64.098347 C 341.467391 64.098347 344.217129 63.098443 346.09195 61.098634 L 367.339921 39.850663 C 371.464527 35.726057 371.464527 29.101689 367.339921 24.977083 L 346.09195 3.729112 C 344.217129 1.854291 341.467391 0.729399 338.717654 0.729399 Z M 253.975747 0.729399 " transform="matrix(0.031253,0,0,0.031253,0,6.719392)"/>
<path style="fill:none;stroke-width:11.338583;stroke-linecap:round;stroke-linejoin:round;stroke:rgb(12.941177%,12.941177%,12.941177%);stroke-opacity:1;stroke-miterlimit:4;" d="M 640.568784 575.378155 C 627.3417 574.905759 614.587011 581.519301 606.556282 592.856802 L 526.721382 712.84535 C 514.911485 731.268788 519.163048 755.360977 537.114091 768.115665 L 776.146395 935.343799 L 937.233383 822.441189 C 943.846925 817.71723 951.877654 815.355251 959.908384 815.355251 L 992.503698 815.355251 L 663.243785 582.464093 C 656.157847 577.740135 648.127117 575.378155 640.568784 575.378155 Z M 640.568784 575.378155 " transform="matrix(0.00826902,0,0,0.00826902,0,0)"/>
</g>
</svg>
